X: 1
T: Pam's Merlot
R: waltz
M: 3/4
L: 1/8
K: Cmaj
[V:1]G2||"Am" AB c2 BA|"C" GB c2 AG|"F" FA c2 d2|"C"e6|"F"f3 e d2|"C"eg-g2 g2|"F"a3 gfe|"G" d4 cB|
"Am"AB c2 BA|"C" GB c2 AG|"F" FA c2 BA|"Em"G6|"F" A3 cBA|"Em"GE- E2 EG|"Dm"A3 GFE|"G"DEFGAB||
[V:2]z2||A,2 CD E2|E2 CD E2|F2AG F2|G2 EF G2|F2 A2 FF|E2 G2 EE|F2 C2 A,2|B,A, G,2 B,2|
A,2 CD E2|E2 CD E2|F2 AG F2|E2 GF E2|F2 C2 F2|E2 GF E2|DEF EFG|G2 D2 B,2||
[V:1]||"F" cde fga|"C"g4 g2|"Dm"FGA Bcd|"Am"e4 e2|"F"fed fed|"C"ed c2 B2|"Am"AB c2 e2|"G"d4 ed|
"F"cde fga|"C"g4 g2|"Dm" FGA Bcd|"C"e4 de|"F" f3 e d2|"C" eg-g2 g2|"Dm"agf2e2|"G"d4|
[V:2]||A,2 C2 CD|E2 G2 E2|D2 F2 A2|c2 A2 E2|C2 F2 A2|G2 E2 G2|A4 A2|B4 G2|
A,2 C2 CD|E2 G2 E2|D2 F2 A2|c2 G2 E2|c2 A2 F2|G2 E2 G2|F4 A2|B4|
[V:1]G2||"Am" AB c2 BA|"C" GB c2 AG|"F" FA c2 d2|"C"e6|"F"f3 e d2|"C"eg-g2 g2|"F"a3 gfe|"G" d4 cB|
"Am"AB c2 BA|"C" GB c2 AG|"F" FA c2 BA|"Em"G6|"F" A3 cBA|"Em"GE- E2 EG|"Dm"A3 GFE|"G"DEFGAB||
[V:2]E2||C2 EFG2|E2 CD E2|F2CFAF|E4 GE|FAc cBA|G2 GD EG 2|AB c2 c2|BA GFED|
C2 EF G2|E2CDE2|F2CDF2|ED B,2G,2|A,CFAGF|E2GFE2|D4 C2|B,2,A,2 G,2||
[V:1]||"F" cde fga|"C"g4 g2|"Dm"FGA Bcd|"Am"e4 e2|"F"fed fed|"C"ed c2 B2|"Am"AB c2 e2|"G"d4 ed|
"F"cde fga|"C"g4 g2|"Dm" FGA Bcd|"C"e4 de|"F" f3 e d2|"C" eg-g2 g2|"G7"agfe d2|"C" c6||
[V:2]||A,B,C DEF|E3GFE|DEF GAB|A2 E2 A2|AGF AGF|E2 EFG2|A2 AG E2|[DG]6|
[AF][BG][cA] [dB][ec][fd]|cBAGFE|DEF GAB|cBAGAB|cBA cBA|c2 G2 ce|f2 d2B2|[CEG]6||

